img/svg/vacancies/capsule.svg

<svg width="24" height="24" viewBox="0 0 24 24" fill="none" xmlns="http://www.w3.org/2000/svg">
<g clip-path="url(#clip0_9344_42568)">
<path d="M21.4815 10.8737L21.4815 10.8738L10.8765 21.4803L10.8764 21.4804C10.3658 21.9914 9.75958 22.3968 9.09233 22.6736C8.42508 22.9503 7.70985 23.0929 6.98749 23.0932C6.26513 23.0935 5.54978 22.9516 4.88228 22.6754C4.21479 22.3993 3.60822 21.9944 3.09721 21.4838C2.5862 20.9733 2.18075 20.367 1.90402 19.6998C1.62729 19.0325 1.48469 18.3173 1.48438 17.595C1.48406 16.8726 1.62602 16.1573 1.90216 15.4898C2.17809 14.8228 2.58433 14.2161 3.09527 13.7047L13.7031 3.09533C14.2139 2.5846 14.8202 2.17946 15.4875 1.90305C16.1548 1.62664 16.87 1.48438 17.5923 1.48438C18.3146 1.48438 19.0298 1.62664 19.6971 1.90305C20.3644 2.17946 20.9708 2.5846 21.4815 3.09533C21.9922 3.60607 22.3974 4.2124 22.6738 4.87971C22.9502 5.54702 23.0925 6.26224 23.0925 6.98453C23.0925 7.70682 22.9502 8.42204 22.6738 9.08935C22.3974 9.75666 21.9922 10.363 21.4815 10.8737ZM16.08 14.8614L16.4336 15.2148L16.7871 14.8613L21.1238 10.5247C21.1243 10.5242 21.1247 10.5237 21.1252 10.5232C21.595 10.0606 21.9686 9.50955 22.2246 8.90192C22.4808 8.29365 22.6141 7.64066 22.6167 6.98064C22.6193 6.3206 22.4912 5.66659 22.2398 5.05631C21.9884 4.44603 21.6186 3.89158 21.1518 3.42492C20.6851 2.95826 20.1305 2.58863 19.5202 2.33736C18.9098 2.08609 18.2558 1.95815 17.5958 1.96091C16.9357 1.96368 16.2828 2.09709 15.6746 2.35347C15.067 2.60956 14.5162 2.98327 14.0536 3.45309L9.71551 7.79123L9.36191 8.14482L9.71555 8.49837L16.08 14.8614Z" stroke="#FBFBFB"/>
</g>
<defs>
<clipPath id="clip0_9344_42568">
<rect width="24" height="24" fill="white"/>
</clipPath>
</defs>
</svg>

<svg width="24" height="24" fill="none" xmlns="http://www.w3.org/2000/svg"><g clip-path="url(#clip0_9344_42568)"><path d="M21.482 10.874h0L10.877 21.48h0a5.503 5.503 0 01-8.973-1.78 5.5 5.5 0 011.191-5.995l10.608-10.61a5.501 5.501 0 017.779 7.779zM16.08 14.86l.354.354.353-.354 4.337-4.336.001-.002a5 5 0 10-7.071-7.07L9.716 7.791l-.354.354.354.353 6.364 6.363z" stroke="#FBFBFB"/></g><defs><clipPath id="clip0_9344_42568"><path fill="#fff" d="M0 0h24v24H0z"/></clipPath></defs></svg>
